<?xml version="1.0" encoding="UTF-8"?>
<map version="1.10" tiledversion="1.12.2" orientation="orthogonal" renderorder="right-down" width="16" height="16" tilewidth="16" tileheight="16" infinite="1" nextlayerid="10" nextobjectid="159">
 <editorsettings>
  <export target="fase1.lua" format="lua"/>
 </editorsettings>
 <tileset firstgid="1" name="tileset" tilewidth="16" tileheight="16" tilecount="64" columns="8">
  <image source="tileset.png" width="128" height="128"/>
 </tileset>
 <layer id="6" name="layer2" width="16" height="16">
  <data encoding="csv">
   <chunk x="-48" y="-32" width="16" height="16">
0,0,0,0,0,0,0,0,0,0,0,0,0,0,0,0,
0,0,0,0,0,0,0,0,0,0,0,0,0,0,0,0,
0,0,0,0,0,0,0,0,0,0,0,0,0,0,0,0,
0,0,0,0,0,0,0,0,0,0,0,0,0,0,0,0,
0,0,0,0,0,0,0,0,0,0,0,0,0,0,0,0,
0,0,0,0,0,0,0,0,0,0,0,0,0,0,0,0,
0,0,0,0,0,0,0,0,0,0,0,0,0,0,0,0,
0,0,0,0,0,0,0,0,0,0,0,0,0,0,0,0,
0,0,0,0,0,0,0,0,0,0,0,0,0,0,0,0,
0,0,0,0,0,0,0,0,0,0,0,0,0,0,0,0,
0,0,0,0,0,0,0,0,0,0,0,0,0,0,0,0,
0,0,0,0,0,0,0,0,0,0,52,52,52,52,52,52,
0,0,0,0,0,0,0,0,0,0,52,52,52,52,52,52,
0,0,0,0,0,0,0,0,0,0,52,52,52,52,52,52,
0,0,0,0,0,0,0,0,0,0,52,52,52,52,52,52,
0,0,0,0,0,0,0,0,0,0,52,52,52,52,52,52
</chunk>
   <chunk x="-32" y="-32" width="16" height="16">
0,0,0,0,0,0,0,0,0,0,0,0,0,0,0,0,
0,0,0,0,0,0,0,0,0,0,0,0,0,0,0,0,
0,0,0,0,0,0,0,0,0,0,0,0,0,0,0,0,
0,0,0,0,0,0,0,0,0,0,0,0,0,0,0,0,
0,0,0,0,0,0,0,0,0,0,0,0,0,0,0,0,
0,0,0,0,0,0,0,0,0,0,0,0,0,0,0,0,
0,0,0,0,0,0,0,0,0,0,0,0,0,0,0,0,
0,0,0,0,0,0,0,0,0,0,0,0,0,0,0,0,
0,0,0,0,0,0,0,0,0,0,0,0,0,0,0,0,
0,0,0,0,0,0,0,0,0,0,0,0,0,0,0,0,
0,0,0,0,0,0,0,0,0,0,0,0,0,0,0,0,
52,52,52,52,52,52,52,52,52,52,52,52,52,52,52,52,
52,52,52,52,52,52,52,52,52,52,52,52,52,52,52,52,
52,52,52,52,52,52,52,52,52,52,52,52,52,52,52,52,
52,52,52,52,52,52,52,52,52,52,52,52,52,52,52,52,
52,52,52,52,52,52,52,52,52,52,52,52,52,52,52,52
</chunk>
   <chunk x="-16" y="-32" width="16" height="16">
0,0,0,0,0,0,0,0,0,0,0,0,0,0,0,0,
0,0,0,0,0,0,0,0,0,0,0,0,0,0,0,0,
0,0,0,0,0,0,0,0,0,0,0,0,0,0,0,0,
0,0,0,0,0,0,0,0,0,0,0,0,0,0,0,0,
0,0,0,0,0,0,0,0,0,0,0,0,0,0,0,0,
0,0,0,0,0,0,0,0,0,0,0,0,0,0,0,0,
0,0,0,0,0,0,0,0,0,0,0,0,0,0,0,0,
0,0,0,0,0,0,0,0,0,0,0,0,0,0,0,0,
0,0,0,0,0,0,0,0,0,0,0,0,0,0,0,0,
0,0,0,0,0,0,0,0,0,0,0,0,0,0,0,0,
0,0,0,0,0,0,0,0,0,0,0,0,0,0,0,0,
52,52,52,52,52,52,52,52,52,52,52,52,52,52,52,52,
52,52,52,52,52,52,52,52,52,52,52,52,52,52,52,52,
52,52,52,52,52,52,52,52,52,52,52,52,52,52,52,52,
52,52,52,52,52,52,52,52,52,52,52,52,52,52,52,52,
52,52,52,52,52,52,52,52,52,52,52,52,52,52,52,52
</chunk>
   <chunk x="0" y="-32" width="16" height="16">
0,0,0,0,0,0,0,0,0,0,0,0,0,0,0,0,
0,0,0,0,0,0,0,0,0,0,0,0,0,0,0,0,
0,0,0,0,0,0,0,0,0,0,0,0,0,0,0,0,
0,0,0,0,0,0,0,0,0,0,0,0,0,0,0,0,
0,0,0,0,0,0,0,0,0,0,0,0,0,0,0,0,
0,0,0,0,0,0,0,0,0,0,0,0,0,0,0,0,
0,0,0,0,0,0,0,0,0,0,0,0,0,0,0,0,
0,0,0,0,0,0,0,0,0,0,0,0,0,0,0,0,
0,0,0,0,0,0,0,0,0,0,0,0,0,0,0,0,
0,0,0,0,0,0,0,0,0,0,0,0,0,0,0,0,
0,0,0,0,0,0,0,0,0,0,0,0,0,0,0,0,
52,52,52,52,52,52,52,52,52,52,52,52,52,52,52,52,
52,52,52,52,52,52,52,52,52,52,52,52,52,52,52,52,
52,52,52,52,52,52,52,52,52,52,52,52,52,52,52,52,
52,52,52,52,52,52,52,52,52,52,52,52,52,52,52,52,
52,52,52,52,52,52,52,52,52,52,52,52,52,52,52,52
</chunk>
   <chunk x="16" y="-32" width="16" height="16">
0,0,0,0,0,0,0,0,0,0,0,0,0,0,0,0,
0,0,0,0,0,0,0,0,0,0,0,0,0,0,0,0,
0,0,0,0,0,0,0,0,0,0,0,0,0,0,0,0,
0,0,0,0,0,0,0,0,0,0,0,0,0,0,0,0,
0,0,0,0,0,0,0,0,0,0,0,0,0,0,0,0,
0,0,0,0,0,0,0,0,0,0,0,0,0,0,0,0,
0,0,0,0,0,0,0,0,0,0,0,0,0,0,0,0,
0,0,0,0,0,0,0,0,0,0,0,0,0,0,0,0,
0,0,0,0,0,0,0,0,0,0,0,0,0,0,0,0,
0,0,0,0,0,0,0,0,0,0,0,0,0,0,0,0,
0,0,0,0,0,0,0,0,0,0,0,0,0,0,0,0,
52,52,52,52,52,52,52,52,52,52,52,52,52,52,52,52,
52,52,52,52,52,52,52,52,52,52,52,52,52,52,52,52,
52,52,52,52,52,52,52,52,52,52,52,52,52,52,52,52,
52,52,52,52,52,52,52,52,52,52,52,52,52,52,52,52,
52,52,52,52,52,52,52,52,52,52,52,52,52,52,52,52
</chunk>
   <chunk x="32" y="-32" width="16" height="16">
0,0,0,0,0,0,0,0,0,0,0,0,0,0,0,0,
0,0,0,0,0,0,0,0,0,0,0,0,0,0,0,0,
0,0,0,0,0,0,0,0,0,0,0,0,0,0,0,0,
0,0,0,0,0,0,0,0,0,0,0,0,0,0,0,0,
0,0,0,0,0,0,0,0,0,0,0,0,0,0,0,0,
0,0,0,0,0,0,0,0,0,0,0,0,0,0,0,0,
0,0,0,0,0,0,0,0,0,0,0,0,0,0,0,0,
0,0,0,0,0,0,0,0,0,0,0,0,0,0,0,0,
0,0,0,0,0,0,0,0,0,0,0,0,0,0,0,0,
0,0,0,0,0,0,0,0,0,0,0,0,0,0,0,0,
0,0,0,0,0,0,0,0,0,0,0,0,0,0,0,0,
52,52,52,52,52,52,52,52,52,52,52,52,52,0,0,0,
52,52,52,52,52,52,52,52,52,52,52,52,52,0,0,0,
52,52,52,52,52,52,52,52,52,52,52,52,52,0,0,0,
52,52,52,52,52,52,52,52,52,52,52,52,52,0,0,0,
52,52,52,52,52,52,52,52,52,52,52,52,52,0,0,0
</chunk>
   <chunk x="-48" y="-16" width="16" height="16">
0,0,0,0,0,0,0,0,0,0,52,52,52,52,52,52,
0,0,0,0,0,0,0,0,0,0,52,52,52,52,52,52,
0,0,0,0,0,0,0,0,0,0,52,52,52,52,52,52,
0,0,0,0,0,0,0,0,0,0,52,52,52,52,52,52,
0,0,0,0,0,0,0,0,0,0,52,52,52,52,52,52,
0,0,0,0,0,0,0,0,0,0,52,52,52,52,52,52,
0,0,0,0,0,0,0,0,0,0,52,52,52,52,52,52,
0,0,0,0,0,0,0,0,0,0,52,52,52,52,52,52,
0,0,0,0,0,0,0,0,0,0,52,52,52,52,52,52,
0,0,0,0,0,0,0,0,0,0,52,52,52,52,52,52,
0,0,0,0,0,0,0,0,0,0,52,52,52,52,52,52,
0,0,0,0,0,0,0,0,0,0,52,52,52,52,52,52,
0,0,0,0,0,0,0,0,0,0,52,52,52,52,52,52,
0,0,0,0,0,0,0,0,0,0,52,52,52,52,52,52,
0,0,0,0,0,0,0,0,0,0,52,52,52,52,52,52,
0,0,0,0,0,0,0,0,0,0,52,52,52,52,52,52
</chunk>
   <chunk x="-32" y="-16" width="16" height="16">
52,52,52,52,52,52,52,52,52,52,52,52,52,52,52,52,
52,52,52,52,52,52,52,52,52,52,52,52,52,52,52,52,
52,52,52,52,52,52,52,52,52,52,52,52,52,52,52,52,
52,52,52,52,52,52,52,52,52,52,52,52,52,52,52,52,
52,52,52,52,52,52,52,52,52,52,52,52,52,52,52,52,
52,52,52,52,52,52,52,52,52,52,52,52,52,52,52,52,
52,52,52,52,52,52,52,52,52,52,52,52,52,52,52,52,
52,52,52,52,52,52,52,52,52,52,52,52,52,52,52,52,
52,52,52,52,52,52,52,52,52,52,52,52,52,52,52,52,
52,52,52,52,52,52,52,52,52,52,52,52,52,52,52,52,
52,52,52,52,52,52,52,52,52,52,52,52,52,52,52,52,
52,52,52,52,52,52,52,52,52,52,52,52,52,52,52,52,
52,52,52,52,52,52,52,52,52,52,52,52,52,52,52,52,
52,52,52,52,52,52,52,52,52,52,52,52,52,52,52,52,
52,52,52,52,52,52,52,52,52,52,52,52,52,52,52,52,
52,52,52,52,52,52,52,52,52,52,52,52,52,52,52,52
</chunk>
   <chunk x="-16" y="-16" width="16" height="16">
52,52,52,52,52,52,52,52,52,52,52,52,52,52,52,52,
52,52,52,52,52,52,52,52,52,52,52,52,52,52,52,52,
52,52,52,52,52,52,52,52,52,52,52,52,52,52,52,52,
52,52,52,52,52,52,52,52,52,52,52,52,52,52,52,52,
52,52,52,52,52,52,52,52,52,52,52,52,52,52,52,52,
52,52,52,52,52,52,52,52,52,52,52,52,52,52,52,52,
52,52,52,52,52,52,52,52,52,52,52,52,52,52,52,52,
52,52,52,52,52,52,52,52,52,52,52,52,52,52,52,52,
52,52,52,52,52,52,52,52,52,52,52,52,52,52,52,52,
52,52,52,52,52,52,52,52,52,52,52,52,52,52,52,52,
52,52,52,52,52,52,52,52,52,52,52,52,52,52,52,52,
52,52,52,52,52,52,52,52,52,52,52,52,52,52,52,52,
52,52,52,52,52,52,52,52,52,52,52,52,52,52,52,52,
52,52,52,52,52,52,52,52,52,52,52,52,52,52,52,52,
52,52,52,52,52,52,52,52,52,52,52,52,52,52,52,52,
52,52,52,52,52,52,52,52,52,52,52,52,52,52,52,52
</chunk>
   <chunk x="0" y="-16" width="16" height="16">
52,52,52,52,52,52,52,52,52,52,52,52,52,52,52,52,
52,52,52,52,52,52,52,52,52,52,52,52,52,52,52,52,
52,52,52,52,52,52,52,52,52,52,52,52,52,52,52,52,
52,52,52,52,52,52,52,52,52,52,52,52,52,52,52,52,
52,52,52,52,52,52,52,52,52,52,52,52,52,52,52,52,
52,52,52,52,52,52,52,52,52,52,52,52,52,52,52,52,
52,52,52,52,52,52,52,52,52,52,52,52,52,52,52,52,
52,52,52,52,52,52,52,52,52,52,52,52,52,52,52,52,
52,52,52,52,52,52,52,52,52,52,52,52,52,52,52,52,
52,52,52,52,52,52,52,52,52,52,52,52,52,52,52,52,
52,52,52,52,52,52,52,52,52,52,52,52,52,52,52,52,
52,52,52,52,52,52,52,52,52,52,52,52,52,52,52,52,
52,52,52,52,52,52,52,52,52,52,52,52,52,52,52,52,
52,52,52,52,52,52,52,52,52,52,52,52,52,52,52,52,
52,52,52,52,52,52,52,52,52,52,52,52,52,52,52,52,
52,52,52,52,52,52,52,52,52,52,52,52,52,52,52,52
</chunk>
   <chunk x="16" y="-16" width="16" height="16">
52,52,52,52,52,52,52,52,52,52,52,52,52,52,52,52,
52,52,52,52,52,52,52,52,52,52,52,52,52,52,52,52,
52,52,52,52,52,52,52,52,52,52,52,52,52,52,52,52,
52,52,52,52,52,52,52,52,52,52,52,52,52,52,52,52,
52,52,52,52,52,52,52,52,52,52,52,52,52,52,52,52,
52,52,52,52,52,52,52,52,52,52,52,52,52,52,52,52,
52,52,52,52,52,52,52,52,52,52,52,52,52,52,52,52,
52,52,52,52,52,52,52,52,52,52,52,52,52,52,52,52,
52,52,52,52,52,52,52,52,52,52,52,52,52,52,52,52,
52,52,52,52,52,52,52,52,52,52,52,52,52,52,52,52,
52,52,52,52,52,52,52,52,52,52,52,52,52,52,52,52,
52,52,52,52,52,52,52,52,52,52,52,52,52,52,52,52,
52,52,52,52,52,52,52,52,52,52,52,52,52,52,52,52,
52,52,52,52,52,52,52,52,52,52,52,52,52,52,52,52,
52,52,52,52,52,52,52,52,52,52,52,52,52,52,52,52,
52,52,52,52,52,52,52,52,52,52,52,52,52,52,52,52
</chunk>
   <chunk x="32" y="-16" width="16" height="16">
52,52,52,52,52,52,52,52,52,52,52,52,52,0,0,0,
52,52,52,52,52,52,52,52,52,52,52,52,52,0,0,0,
52,52,52,52,52,52,52,52,52,52,52,52,52,0,0,0,
52,52,52,52,52,52,52,52,52,52,52,52,52,0,0,0,
52,52,52,52,52,52,52,52,52,52,52,52,52,0,0,0,
52,52,52,52,52,52,52,52,52,52,52,52,52,0,0,0,
52,52,52,52,52,52,52,52,52,52,52,52,52,0,0,0,
52,52,52,52,52,52,52,52,52,52,52,52,52,0,0,0,
52,52,52,52,52,52,52,52,52,52,52,52,52,0,0,0,
52,52,52,52,52,52,52,52,52,52,52,52,52,0,0,0,
52,52,52,52,52,52,52,52,52,52,52,52,52,0,0,0,
52,52,52,52,52,52,52,52,52,52,52,52,52,0,0,0,
52,52,52,52,52,52,52,52,52,52,52,52,52,0,0,0,
52,52,52,52,52,52,52,52,52,52,52,52,52,0,0,0,
52,52,52,52,52,52,52,52,52,52,52,52,52,0,0,0,
52,52,52,52,52,52,52,52,52,52,52,52,52,0,0,0
</chunk>
   <chunk x="-48" y="0" width="16" height="16">
0,0,0,0,0,0,0,0,0,0,52,52,52,52,52,52,
0,0,0,0,0,0,0,0,0,0,52,52,52,52,52,52,
0,0,0,0,0,0,0,0,0,0,52,52,52,52,52,52,
0,0,0,0,0,0,0,0,0,0,52,52,52,52,52,52,
0,0,0,0,0,0,0,0,0,0,52,52,52,52,52,52,
0,0,0,0,0,0,0,0,0,0,52,52,52,52,52,52,
0,0,0,0,0,0,0,0,0,0,52,52,52,52,52,52,
0,0,0,0,0,0,0,0,0,0,52,52,52,52,52,52,
0,0,0,0,0,0,0,0,0,0,52,52,52,52,52,52,
0,0,0,0,0,0,0,0,0,0,52,52,52,52,52,52,
0,0,0,0,0,0,0,0,0,0,52,52,52,52,52,52,
0,0,0,0,0,0,0,0,0,0,52,52,52,52,52,52,
0,0,0,0,0,0,0,0,0,0,52,52,52,52,52,52,
0,0,0,0,0,0,0,0,0,0,52,52,52,52,52,52,
0,0,0,0,0,0,0,0,0,0,52,52,52,52,52,52,
0,0,0,0,0,0,0,0,0,0,52,52,52,52,52,52
</chunk>
   <chunk x="-32" y="0" width="16" height="16">
52,52,52,52,52,52,52,52,52,52,52,52,52,52,52,52,
52,52,52,52,52,52,52,52,52,52,52,52,52,52,52,52,
52,52,52,52,52,52,52,52,52,52,52,52,52,52,52,52,
52,52,52,52,52,52,52,52,52,52,52,52,52,52,52,52,
52,52,52,52,52,52,52,52,52,52,52,52,52,52,52,52,
52,52,52,52,52,52,52,52,52,52,52,52,52,52,52,52,
52,52,52,52,52,52,52,52,52,52,52,52,52,52,52,52,
52,52,52,52,52,52,52,52,52,52,52,52,52,52,52,52,
52,52,52,52,52,52,52,52,52,52,52,52,52,52,52,52,
52,52,52,52,52,52,52,52,52,52,52,52,52,52,52,52,
52,52,52,52,52,52,52,52,52,52,52,52,52,52,52,52,
52,52,52,52,52,52,52,52,52,52,52,52,52,52,52,52,
52,52,52,52,52,52,52,52,52,52,52,52,52,52,52,52,
52,52,52,52,52,52,52,52,52,52,52,52,52,52,52,52,
52,52,52,52,52,52,52,52,52,52,52,52,52,52,52,52,
52,52,52,52,52,52,52,52,52,52,52,52,52,52,52,52
</chunk>
   <chunk x="-16" y="0" width="16" height="16">
52,52,52,52,52,52,52,52,52,52,52,52,52,52,52,52,
52,52,52,52,52,52,52,52,52,52,52,52,52,52,52,52,
52,52,52,52,52,52,52,52,52,52,52,52,52,52,52,52,
52,52,52,52,52,52,52,52,52,52,52,52,52,52,52,52,
52,52,52,52,52,52,52,52,52,52,52,52,52,52,52,52,
52,52,52,52,52,52,52,52,52,52,52,52,52,52,52,52,
52,52,52,52,52,52,52,52,52,52,52,52,52,52,52,52,
52,52,52,52,52,52,52,52,52,52,52,52,52,52,52,52,
52,52,52,52,52,52,52,52,52,52,52,52,52,52,52,52,
52,52,52,52,52,52,52,52,52,52,52,52,52,52,52,52,
52,52,52,52,52,52,52,52,52,52,52,52,52,52,52,52,
52,52,52,52,52,52,52,52,52,52,52,52,52,52,52,52,
52,52,52,52,52,52,52,52,52,52,52,52,52,52,52,52,
52,52,52,52,52,52,52,52,52,52,52,52,52,52,52,52,
52,52,52,52,52,52,52,52,52,52,52,52,52,52,52,52,
52,52,52,52,52,52,52,52,52,52,52,52,52,52,52,52
</chunk>
   <chunk x="0" y="0" width="16" height="16">
52,52,52,52,52,52,52,52,52,52,52,52,52,52,52,52,
52,52,52,52,52,52,52,52,52,52,52,52,52,52,52,52,
52,52,52,52,52,52,52,52,52,52,52,52,52,52,52,52,
52,52,52,52,52,52,52,52,52,52,52,52,52,52,52,52,
52,52,52,52,52,52,52,52,52,52,52,52,52,52,52,52,
52,52,52,52,52,52,52,52,52,52,52,52,52,52,52,52,
52,52,52,52,52,52,52,52,52,52,52,52,52,52,52,52,
52,52,52,52,52,52,52,52,52,52,52,52,52,52,52,52,
52,52,52,52,52,52,52,52,52,52,52,52,52,52,52,52,
52,52,52,52,52,52,52,52,52,52,52,52,52,52,52,52,
52,52,52,52,52,52,52,52,52,52,52,52,52,52,52,52,
52,52,52,52,52,52,52,52,52,52,52,52,52,52,52,52,
52,52,52,52,52,52,52,52,52,52,52,52,52,52,52,52,
52,52,52,52,52,52,52,52,52,52,52,52,52,52,52,52,
52,52,52,52,52,52,52,52,52,52,52,52,52,52,52,52,
52,52,52,52,52,52,52,52,52,52,52,52,52,52,52,52
</chunk>
   <chunk x="16" y="0" width="16" height="16">
52,52,52,52,52,52,52,52,52,52,52,52,52,52,52,52,
52,52,52,52,52,52,52,52,52,52,52,52,52,52,52,52,
52,52,52,52,52,52,52,52,52,52,52,52,52,52,52,52,
52,52,52,52,52,52,52,52,52,52,52,52,52,52,52,52,
52,52,52,52,52,52,52,52,52,52,52,52,52,52,52,52,
52,52,52,52,52,52,52,52,52,52,52,52,52,52,52,52,
52,52,52,52,52,52,52,52,52,52,52,52,52,52,52,52,
52,52,52,52,52,52,52,52,52,52,52,52,52,52,52,52,
52,52,52,52,52,52,52,52,52,52,52,52,52,52,52,52,
52,52,52,52,52,52,52,52,52,52,52,52,52,52,52,52,
52,52,52,52,52,52,52,52,52,52,52,52,52,52,52,52,
52,52,52,52,52,52,52,52,52,52,52,52,52,52,52,52,
52,52,52,52,52,52,52,52,52,52,52,52,52,52,52,52,
52,52,52,52,52,52,52,52,52,52,52,52,52,52,52,52,
52,52,52,52,52,52,52,52,52,52,52,52,52,52,52,52,
52,52,52,52,52,52,52,52,52,52,52,52,52,52,52,52
</chunk>
   <chunk x="32" y="0" width="16" height="16">
52,52,52,52,52,52,52,52,52,52,52,52,52,0,0,0,
52,52,52,52,52,52,52,52,52,52,52,52,52,0,0,0,
52,52,52,52,52,52,52,52,52,52,52,52,52,0,0,0,
52,52,52,52,52,52,52,52,52,52,52,52,52,0,0,0,
52,52,52,52,52,52,52,52,52,52,52,52,52,0,0,0,
52,52,52,52,52,52,52,52,52,52,52,52,52,0,0,0,
52,52,52,52,52,52,52,52,52,52,52,52,52,0,0,0,
52,52,52,52,52,52,52,52,52,52,52,52,52,0,0,0,
52,52,52,52,52,52,52,52,52,52,52,52,52,0,0,0,
52,52,52,52,52,52,52,52,52,52,52,52,52,0,0,0,
52,52,52,52,52,52,52,52,52,52,52,52,52,0,0,0,
52,52,52,52,52,52,52,52,52,52,52,52,52,0,0,0,
52,52,52,52,52,52,52,52,52,52,52,52,52,0,0,0,
52,52,52,52,52,52,52,52,52,52,52,52,52,0,0,0,
52,52,52,52,52,52,52,52,52,52,52,52,52,0,0,0,
52,52,52,52,52,52,52,52,52,52,52,52,52,0,0,0
</chunk>
   <chunk x="-48" y="16" width="16" height="16">
0,0,0,0,0,0,0,0,0,0,52,52,52,52,52,52,
0,0,0,0,0,0,0,0,0,0,52,52,52,52,52,52,
0,0,0,0,0,0,0,0,0,0,52,52,52,52,52,52,
0,0,0,0,0,0,0,0,0,0,52,52,52,52,52,52,
0,0,0,0,0,0,0,0,0,0,52,52,52,52,52,52,
0,0,0,0,0,0,0,0,0,0,52,52,52,52,52,52,
0,0,0,0,0,0,0,0,0,0,52,52,52,52,52,52,
0,0,0,0,0,0,0,0,0,0,52,52,52,52,52,52,
0,0,0,0,0,0,0,0,0,0,52,52,52,52,52,52,
0,0,0,0,0,0,0,0,0,0,52,52,52,52,52,52,
0,0,0,0,0,0,0,0,0,0,52,52,52,52,52,52,
0,0,0,0,0,0,0,0,0,0,52,52,52,52,52,52,
0,0,0,0,0,0,0,0,0,0,52,52,52,52,52,52,
0,0,0,0,0,0,0,0,0,0,0,0,0,0,0,0,
0,0,0,0,0,0,0,0,0,0,0,0,0,0,0,0,
0,0,0,0,0,0,0,0,0,0,0,0,0,0,0,0
</chunk>
   <chunk x="-32" y="16" width="16" height="16">
52,52,52,52,52,52,52,52,52,52,52,52,52,52,52,52,
52,52,52,52,52,52,52,52,52,52,52,52,52,52,52,52,
52,52,52,52,52,52,52,52,52,52,52,52,52,52,52,52,
52,52,52,52,52,52,52,52,52,52,52,52,52,52,52,52,
52,52,52,52,52,52,52,52,52,52,52,52,52,52,52,52,
52,52,52,52,52,52,52,52,52,52,52,52,52,52,52,52,
52,52,52,52,52,52,52,52,52,52,52,52,52,52,52,52,
52,52,52,52,52,52,52,52,52,52,52,52,52,52,52,52,
52,52,52,52,52,52,52,52,52,52,52,52,52,52,52,52,
52,52,52,52,52,52,52,52,52,52,52,52,52,52,52,52,
52,52,52,52,52,52,52,52,52,52,52,52,52,52,52,52,
52,52,52,52,52,52,52,52,52,52,52,52,52,52,52,52,
52,52,52,52,52,52,52,52,52,52,52,52,52,52,52,52,
0,0,0,0,0,0,0,0,0,0,0,0,0,0,0,0,
0,0,0,0,0,0,0,0,0,0,0,0,0,0,0,0,
0,0,0,0,0,0,0,0,0,0,0,0,0,0,0,0
</chunk>
   <chunk x="-16" y="16" width="16" height="16">
52,52,52,52,52,52,52,52,52,52,52,52,52,52,52,52,
52,52,52,52,52,52,52,52,52,52,52,52,52,52,52,52,
52,52,52,52,52,52,52,52,52,52,52,52,52,52,52,52,
52,52,52,52,52,52,52,52,52,52,52,52,52,52,52,52,
52,52,52,52,52,52,52,52,52,52,52,52,52,52,52,52,
52,52,52,52,52,52,52,52,52,52,52,52,52,52,52,52,
52,52,52,52,52,52,52,52,52,52,52,52,52,52,52,52,
52,52,52,52,52,52,52,52,52,52,52,52,52,52,52,52,
52,52,52,52,52,52,52,52,52,52,52,52,52,52,52,52,
52,52,52,52,52,52,52,52,52,52,52,52,52,52,52,52,
52,52,52,52,52,52,52,52,52,52,52,52,52,52,52,52,
52,52,52,52,52,52,52,52,52,52,52,52,52,52,52,52,
52,52,52,52,52,52,52,52,52,52,52,52,52,52,52,52,
0,0,0,0,0,0,0,0,0,0,0,0,0,0,0,0,
0,0,0,0,0,0,0,0,0,0,0,0,0,0,0,0,
0,0,0,0,0,0,0,0,0,0,0,0,0,0,0,0
</chunk>
   <chunk x="0" y="16" width="16" height="16">
52,52,52,52,52,52,52,52,52,52,52,52,52,52,52,52,
52,52,52,52,52,52,52,52,52,52,52,52,52,52,52,52,
52,52,52,52,52,52,52,52,52,52,52,52,52,52,52,52,
52,52,52,52,52,52,52,52,52,52,52,52,52,52,52,52,
52,52,52,52,52,52,52,52,52,52,52,52,52,52,52,52,
52,52,52,52,52,52,52,52,52,52,52,52,52,52,52,52,
52,52,52,52,52,52,52,52,52,52,52,52,52,52,52,52,
52,52,52,52,52,52,52,52,52,52,52,52,52,52,52,52,
52,52,52,52,52,52,52,52,52,52,52,52,52,52,52,52,
52,52,52,52,52,52,52,52,52,52,52,52,52,52,52,52,
52,52,52,52,52,52,52,52,52,52,52,52,52,52,52,52,
52,52,52,52,52,52,52,52,52,52,52,52,52,52,52,52,
52,52,52,52,52,52,52,52,52,52,52,52,52,52,52,52,
0,0,0,0,0,0,0,0,0,0,0,0,0,0,0,0,
0,0,0,0,0,0,0,0,0,0,0,0,0,0,0,0,
0,0,0,0,0,0,0,0,0,0,0,0,0,0,0,0
</chunk>
   <chunk x="16" y="16" width="16" height="16">
52,52,52,52,52,52,52,52,52,52,52,52,52,52,52,52,
52,52,52,52,52,52,52,52,52,52,52,52,52,52,52,52,
52,52,52,52,52,52,52,52,52,52,52,52,52,52,52,52,
52,52,52,52,52,52,52,52,52,52,52,52,52,52,52,52,
52,52,52,52,52,52,52,52,52,52,52,52,52,52,52,52,
52,52,52,52,52,52,52,52,52,52,52,52,52,52,52,52,
52,52,52,52,52,52,52,52,52,52,52,52,52,52,52,52,
52,52,52,52,52,52,52,52,52,52,52,52,52,52,52,52,
52,52,52,52,52,52,52,52,52,52,52,52,52,52,52,52,
52,52,52,52,52,52,52,52,52,52,52,52,52,52,52,52,
52,52,52,52,52,52,52,52,52,52,52,52,52,52,52,52,
52,52,52,52,52,52,52,52,52,52,52,52,52,52,52,52,
52,52,52,52,52,52,52,52,52,52,52,52,52,52,52,52,
0,0,0,0,0,0,0,0,0,0,0,0,0,0,0,0,
0,0,0,0,0,0,0,0,0,0,0,0,0,0,0,0,
0,0,0,0,0,0,0,0,0,0,0,0,0,0,0,0
</chunk>
   <chunk x="32" y="16" width="16" height="16">
52,52,52,52,52,52,52,52,52,52,52,52,52,0,0,0,
52,52,52,52,52,52,52,52,52,52,52,52,52,0,0,0,
52,52,52,52,52,52,52,52,52,52,52,52,52,0,0,0,
52,52,52,52,52,52,52,52,52,52,52,52,52,0,0,0,
52,52,52,52,52,52,52,52,52,52,52,52,52,0,0,0,
52,52,52,52,52,52,52,52,52,52,52,52,52,0,0,0,
52,52,52,52,52,52,52,52,52,52,52,52,52,0,0,0,
52,52,52,52,52,52,52,52,52,52,52,52,52,0,0,0,
52,52,52,52,52,52,52,52,52,52,52,52,52,0,0,0,
52,52,52,52,52,52,52,52,52,52,52,52,52,0,0,0,
52,52,52,52,52,52,52,52,52,52,52,52,52,0,0,0,
52,52,52,52,52,52,52,52,52,52,52,52,52,0,0,0,
52,52,52,52,52,52,52,52,52,52,52,52,52,0,0,0,
0,0,0,0,0,0,0,0,0,0,0,0,0,0,0,0,
0,0,0,0,0,0,0,0,0,0,0,0,0,0,0,0,
0,0,0,0,0,0,0,0,0,0,0,0,0,0,0,0
</chunk>
  </data>
 </layer>
 <layer id="1" name="layer1" width="16" height="16">
  <data encoding="csv">
   <chunk x="-32" y="-32" width="16" height="16">
0,0,0,0,0,0,0,0,0,0,0,0,0,0,0,0,
0,0,0,0,0,0,0,0,0,0,0,0,0,0,0,0,
0,0,0,0,0,0,0,0,0,0,0,0,0,0,0,0,
0,0,0,0,0,0,0,0,0,0,0,0,0,0,0,0,
0,0,0,0,0,0,0,0,0,0,0,0,0,0,0,0,
0,0,0,0,0,0,0,0,0,0,0,0,0,0,0,0,
0,0,0,0,0,0,0,0,0,0,0,0,0,0,0,0,
0,0,0,0,0,0,0,0,0,0,0,0,0,0,0,0,
0,0,0,0,0,0,0,0,0,0,0,0,0,0,0,0,
0,0,0,0,0,0,0,0,0,0,0,0,0,0,0,0,
0,0,0,0,0,0,0,0,0,0,0,0,0,0,0,0,
0,0,0,0,0,0,0,0,0,0,0,0,0,0,0,0,
0,0,0,0,0,0,0,0,0,0,0,0,0,0,0,0,
0,0,0,0,0,0,0,0,0,0,0,0,0,0,0,0,
0,0,0,0,0,0,0,0,0,0,0,0,0,0,0,0,
0,0,0,0,0,0,0,0,0,0,0,0,2684354609,1073741874,1073741874,1073741874
</chunk>
   <chunk x="-16" y="-32" width="16" height="16">
0,0,0,0,0,0,0,0,0,0,0,0,0,0,0,0,
0,0,0,0,0,0,0,0,0,0,0,0,0,0,0,0,
0,0,0,0,0,0,0,0,0,0,0,0,0,0,0,0,
0,0,0,0,0,0,0,0,0,0,0,0,0,0,0,0,
0,0,0,0,0,0,0,0,0,0,0,0,0,0,0,0,
0,0,0,0,0,0,0,0,0,0,0,0,0,0,0,0,
0,0,0,0,0,0,0,0,0,0,0,0,0,0,0,0,
0,0,0,0,0,0,0,0,0,0,0,0,0,0,0,0,
0,0,0,0,0,0,0,0,0,0,0,0,0,0,0,0,
0,0,0,0,0,0,0,0,0,0,0,0,0,0,0,0,
0,0,0,0,0,0,0,0,0,0,0,0,0,0,0,0,
0,0,0,0,0,0,0,0,0,0,0,0,0,0,0,0,
0,0,0,0,0,0,0,0,0,0,0,0,0,0,0,0,
0,0,0,0,0,0,0,0,0,0,0,0,0,0,0,0,
0,0,0,0,0,0,0,0,0,0,0,0,0,0,0,0,
1073741874,1073741874,1073741874,1073741874,1073741874,1073741874,1073741874,1073741874,1073741874,1073741874,1073741874,1073741874,1073741874,1073741874,1073741874,1073741874
</chunk>
   <chunk x="0" y="-32" width="16" height="16">
0,0,0,0,0,0,0,0,0,0,0,0,0,0,0,0,
0,0,0,0,0,0,0,0,0,0,0,0,0,0,0,0,
0,0,0,0,0,0,0,0,0,0,0,0,0,0,0,0,
0,0,0,0,0,0,0,0,0,0,0,0,0,0,0,0,
0,0,0,0,0,0,0,0,0,0,0,0,0,0,0,0,
0,0,0,0,0,0,0,0,0,0,0,0,0,0,0,0,
0,0,0,0,0,0,0,0,0,0,0,0,0,0,0,0,
0,0,0,0,0,0,0,0,0,0,0,0,0,0,0,0,
0,0,0,0,0,0,0,0,0,0,0,0,0,0,0,0,
0,0,0,0,0,0,0,0,0,0,0,0,0,0,0,0,
0,0,0,0,0,0,0,0,0,0,0,0,0,0,0,0,
0,0,0,0,0,0,0,0,0,0,0,0,0,0,0,0,
0,0,0,0,0,0,0,0,0,0,0,0,0,0,0,0,
0,0,0,0,0,0,0,0,0,0,0,0,0,0,0,0,
0,0,0,0,0,0,0,0,0,0,0,0,0,0,0,0,
1073741874,1073741874,1073741874,1073741874,1073741874,1073741874,1073741874,1073741874,1073741874,1073741874,1073741874,1073741874,1073741874,1073741874,1073741874,1073741874
</chunk>
   <chunk x="16" y="-32" width="16" height="16">
0,0,0,0,0,0,0,0,0,0,0,0,0,0,0,0,
0,0,0,0,0,0,0,0,0,0,0,0,0,0,0,0,
0,0,0,0,0,0,0,0,0,0,0,0,0,0,0,0,
0,0,0,0,0,0,0,0,0,0,0,0,0,0,0,0,
0,0,0,0,0,0,0,0,0,0,0,0,0,0,0,0,
0,0,0,0,0,0,0,0,0,0,0,0,0,0,0,0,
0,0,0,0,0,0,0,0,0,0,0,0,0,0,0,0,
0,0,0,0,0,0,0,0,0,0,0,0,0,0,0,0,
0,0,0,0,0,0,0,0,0,0,0,0,0,0,0,0,
0,0,0,0,0,0,0,0,0,0,0,0,0,0,0,0,
0,0,0,0,0,0,0,0,0,0,0,0,0,0,0,0,
0,0,0,0,0,0,0,0,0,0,0,0,0,0,0,0,
0,0,0,0,0,0,0,0,0,0,0,0,0,0,0,0,
0,0,0,0,0,0,0,0,0,0,0,0,0,0,0,0,
0,0,0,0,0,0,0,0,0,0,0,0,0,0,0,0,
3221225521,0,0,0,0,0,0,0,0,0,0,0,0,0,0,0
</chunk>
   <chunk x="-32" y="-16" width="16" height="16">
0,0,0,0,0,0,0,0,0,0,0,0,1610612778,3758096432,3221225520,1073741870,
0,0,0,0,0,0,0,0,0,0,0,0,1610612778,2684354606,0,0,
0,0,0,0,0,0,0,0,0,0,0,0,1610612778,2684354607,0,0,
0,0,0,0,0,0,0,0,0,0,0,0,1610612778,2684354606,0,0,
0,0,0,0,0,0,0,0,0,0,0,0,1610612778,2684354607,0,0,
0,0,0,0,0,0,0,0,0,0,0,0,1610612778,2684354606,0,2684354564,
0,0,0,0,0,0,0,0,0,0,0,0,1610612778,2684354606,0,0,
0,0,0,0,0,0,0,0,0,0,0,0,1610612778,2684354607,0,2684354564,
0,0,0,0,0,0,0,0,0,0,0,0,1610612778,2684354606,0,0,
0,0,0,0,0,0,0,0,0,0,0,0,1610612778,2684354606,0,0,
0,0,0,0,0,0,0,0,0,0,0,0,1610612778,2684354606,0,0,
0,0,0,0,0,0,0,0,0,0,0,0,1610612778,2684354607,0,0,
0,0,0,0,0,0,0,0,0,0,0,0,1610612778,2684354606,0,0,
0,0,0,0,0,0,0,0,0,0,0,0,1610612778,2684354606,0,0,
0,0,0,0,0,0,0,0,0,0,0,0,1610612778,2684354606,0,0,
0,0,0,0,0,0,0,0,0,0,0,0,1610612778,2684354606,0,0
</chunk>
   <chunk x="-16" y="-16" width="16" height="16">
1073741870,1073741870,1073741870,1073741870,1073741870,1073741870,1073741870,1073741870,1073741870,1073741870,1073741870,1073741870,1073741870,1073741870,1073741870,1073741870,
0,0,0,0,0,0,0,0,0,0,0,0,0,0,0,0,
4,0,0,0,4,4,0,0,0,0,0,0,0,0,27,27,
0,0,0,0,0,0,0,0,0,0,0,0,0,0,0,0,
0,0,0,0,0,0,0,0,0,0,2684354564,0,0,0,0,0,
0,0,0,0,0,0,0,0,0,0,0,0,0,0,0,0,
0,0,0,0,0,0,0,0,0,0,0,0,1610612763,0,0,0,
0,0,0,0,0,0,0,2684354564,0,0,0,0,1610612763,0,0,0,
0,0,0,0,0,0,0,0,0,0,0,0,1610612763,0,0,0,
0,27,27,27,0,0,0,0,0,0,0,0,0,0,27,27,
0,0,0,0,0,0,0,27,27,0,0,0,0,0,0,0,
0,0,0,0,0,0,0,0,0,0,0,0,0,0,0,0,
0,1610612740,0,0,0,0,0,0,0,0,0,0,0,0,0,0,
0,1610612740,0,0,2147483676,27,27,27,28,0,0,3221225500,27,27,28,0,
0,1610612740,0,0,0,0,0,0,0,0,0,0,0,0,0,0,
0,1610612740,0,0,0,0,0,0,0,0,0,0,0,0,0,0
</chunk>
   <chunk x="0" y="-16" width="16" height="16">
1073741870,1073741870,1073741870,1073741870,1073741870,1073741870,1073741870,1073741872,0,0,0,0,0,0,0,0,
0,0,0,0,0,0,0,0,0,0,0,0,0,0,0,0,
0,0,0,27,0,0,0,0,0,0,0,0,0,0,0,0,
0,0,0,0,0,0,0,0,1610612781,51,51,51,51,51,51,51,
1610612763,0,0,0,0,0,0,0,0,3221225520,3221225517,1073741871,1073741870,1073741871,1073741872,1610612784,
0,0,0,0,0,27,0,0,0,0,0,0,0,0,0,1610612783,
0,0,0,0,0,0,0,0,1610612763,0,0,0,0,0,0,1610612782,
0,0,27,0,0,0,0,0,0,0,0,0,1610612763,0,0,1610612781,
0,0,0,0,0,0,0,0,0,0,0,0,0,0,0,1610612783,
0,0,0,0,27,27,0,0,0,1610612763,0,0,0,0,0,1610612782,
0,0,0,0,0,0,0,0,0,0,0,0,0,0,0,1610612781,
0,27,27,0,0,0,0,0,0,0,0,0,0,0,0,1610612783,
0,0,0,0,0,0,0,0,0,0,0,0,0,1073741858,0,1610612782,
0,0,0,0,2147483676,28,0,0,0,2147483676,27,27,27,3221225498,0,1610612781,
0,0,0,0,0,0,0,0,0,0,0,0,0,0,0,1610612783,
0,0,0,0,0,0,0,0,0,0,0,0,2684354587,0,0,1610612782
</chunk>
   <chunk x="16" y="-16" width="16" height="16">
2684354602,0,0,0,0,0,0,0,0,0,0,0,0,0,0,0,
2684354602,0,0,0,0,0,0,0,0,0,0,0,0,0,0,0,
2684354602,0,0,0,0,0,0,0,0,0,0,0,0,0,0,0,
2684354602,0,0,0,0,0,0,0,0,0,0,0,0,0,0,0,
2684354602,0,0,0,0,0,0,0,0,0,0,0,0,0,0,0,
2684354602,0,0,0,0,0,0,0,0,0,0,0,0,0,0,0,
2684354602,0,0,0,0,0,0,0,0,0,0,0,0,0,0,0,
2684354602,0,0,0,0,0,0,0,0,0,0,0,0,0,0,0,
2684354602,0,0,0,0,0,0,0,0,0,0,0,0,0,0,0,
2684354602,0,0,0,0,0,0,0,0,0,0,0,0,0,0,0,
2684354602,0,0,0,0,0,0,0,0,0,0,0,0,0,0,0,
2684354602,0,0,0,0,0,0,0,0,0,0,0,0,0,0,0,
2684354602,0,0,0,0,0,0,0,0,0,0,0,0,0,0,0,
2684354602,0,0,0,0,0,0,0,0,0,0,0,0,0,0,0,
2684354602,0,0,0,0,0,0,0,0,0,0,0,0,0,0,0,
2684354602,0,0,0,0,0,0,0,0,0,0,0,0,0,0,0
</chunk>
   <chunk x="-32" y="0" width="16" height="16">
0,0,0,0,0,0,0,0,0,0,0,0,1610612778,2684354607,0,0,
0,0,0,0,0,0,0,0,0,0,0,0,1610612778,2684354606,0,0,
0,0,0,0,0,0,0,0,0,0,0,0,1610612778,2684354607,0,0,
0,0,0,0,0,0,0,0,0,0,0,0,1610612778,2684354606,0,0,
0,0,0,0,0,0,0,0,0,0,0,0,2684354610,2684354606,0,0,
0,0,0,0,0,0,0,0,0,0,0,0,2684354610,2684354607,0,0,
0,0,0,0,0,0,0,0,0,0,0,0,2684354610,2684354606,0,0,
0,0,0,0,0,0,0,0,0,0,0,0,2684354610,2684354607,0,0,
0,0,0,0,0,0,0,0,0,0,0,0,2684354610,2684354606,0,0,
0,0,0,0,0,0,0,0,0,0,0,0,2684354610,2684354608,0,0,
2684354609,1073741874,42,1073741874,42,42,42,1073741874,42,42,42,1073741874,42,42,3221225521,0,
2684354610,0,0,0,0,0,0,0,0,0,0,0,0,0,1610612786,0,
1610612778,0,0,0,0,0,0,0,0,0,0,0,0,0,2684354602,0,
2684354610,0,0,0,0,0,0,0,0,0,0,0,0,0,1610612786,0,
1610612778,0,0,0,0,0,0,0,0,0,0,0,0,0,2684354602,0,
1610612778,0,0,0,0,0,0,0,0,0,0,0,0,0,2684354602,0
</chunk>
   <chunk x="-16" y="0" width="16" height="16">
0,0,0,0,0,0,0,0,0,0,0,0,0,0,0,0,
0,0,3,4,6,0,0,0,0,0,2147483676,27,27,27,27,27,
0,0,0,0,0,0,0,0,0,0,0,0,0,0,0,0,
0,0,0,0,0,0,0,0,0,0,0,0,0,0,0,0,
0,1610612740,0,0,0,2147483654,2,0,0,0,0,0,0,0,0,0,
0,0,0,0,0,0,0,0,0,0,2684354594,27,1610612770,0,0,0,
0,0,0,0,0,0,0,0,0,0,0,0,0,0,0,2147483654,
0,1610612740,0,0,0,0,0,0,0,0,0,0,0,0,0,0,
0,1610612740,0,0,26,27,27,1073741852,0,0,0,0,0,0,0,0,
0,1610612740,0,0,34,0,0,0,0,0,0,0,0,0,0,0,
0,1610612740,0,0,0,0,0,0,0,0,0,0,0,0,0,0,
0,0,0,0,0,0,0,0,0,0,0,0,0,0,0,4,
0,0,0,0,0,0,0,26,27,27,27,1073741852,0,0,0,0,
0,3758096411,0,0,0,0,0,34,0,0,0,0,0,0,0,0,
0,3758096411,0,0,0,0,0,0,0,0,0,0,0,0,0,0,
0,0,0,0,0,0,0,0,0,0,0,0,0,0,0,0
</chunk>
   <chunk x="0" y="0" width="16" height="16">
0,0,0,0,0,0,0,0,0,0,0,0,2684354587,0,0,1610612781,
2147483674,0,0,0,0,0,0,2684354594,27,536870946,0,0,34,0,0,1610612783,
1610612762,27,27,27,27,28,0,0,0,0,0,0,0,0,0,1610612782,
0,0,0,0,0,0,0,0,0,0,0,0,0,0,0,1610612781,
0,0,0,0,0,0,0,0,0,0,0,0,0,0,0,1610612783,
0,0,0,0,0,0,0,0,0,0,0,0,1610612742,0,0,1610612782,
3221225476,3221225476,2,0,0,0,0,0,0,0,0,0,2684354564,0,0,1610612781,
0,0,0,0,0,3221225500,27,2147483674,0,0,0,0,0,0,0,1610612783,
0,0,0,0,0,0,0,34,0,0,0,0,0,0,0,1610612782,
0,0,0,0,0,0,0,0,0,0,0,0,0,0,0,1610612781,
0,0,0,0,0,0,0,0,0,0,0,0,2684354564,0,0,1610612783,
0,0,0,0,0,0,0,0,0,0,0,0,2684354564,0,0,1610612782,
0,0,3,4,6,0,1,4,4,5,0,0,2684354564,0,0,1610612781,
0,0,0,0,0,0,0,0,0,0,0,0,0,0,0,1610612783,
0,0,0,0,0,0,0,0,0,0,0,0,0,0,0,1610612782,
0,0,0,0,0,0,0,0,0,0,0,0,2684354564,0,0,1610612781
</chunk>
   <chunk x="16" y="0" width="16" height="16">
2684354602,0,0,0,0,0,0,0,0,0,0,0,0,0,0,0,
2684354602,0,0,0,0,0,0,0,0,0,0,0,0,0,0,0,
2684354602,0,0,0,0,0,0,0,0,0,0,0,0,0,0,0,
2684354602,0,0,0,0,0,0,0,0,0,0,0,0,0,0,0,
2684354602,0,0,0,0,0,0,0,0,0,0,0,0,0,0,0,
2684354602,0,0,0,0,0,0,0,0,0,0,0,0,0,0,0,
2684354602,0,0,0,0,0,0,0,0,0,0,0,0,0,0,0,
2684354602,0,0,0,0,0,0,0,0,0,0,0,0,0,0,0,
2684354602,0,0,0,0,0,0,0,0,0,0,0,0,0,0,0,
2684354602,0,0,0,0,0,0,0,0,0,0,0,0,0,0,0,
2684354602,0,0,0,0,0,0,0,0,0,0,0,0,0,0,0,
2684354602,0,0,0,0,0,0,0,0,0,0,0,0,0,0,0,
2684354602,0,0,0,0,0,0,0,0,0,0,0,0,0,0,0,
2684354602,0,0,0,0,0,0,0,0,0,0,0,0,0,0,0,
2684354602,0,0,0,0,0,0,0,0,0,0,0,0,0,0,0,
2684354602,0,0,0,0,0,0,0,0,0,0,0,0,0,0,0
</chunk>
   <chunk x="-32" y="16" width="16" height="16">
1610612778,0,52,52,52,52,52,52,52,52,52,52,52,52,52,52,
2684354610,0,52,52,52,52,52,52,52,52,52,52,52,52,52,52,
1610612778,0,52,52,52,52,52,52,52,52,52,52,52,52,52,52,
2684354610,0,52,52,52,52,52,52,52,52,52,52,52,52,52,52,
49,1073741866,50,1073741866,1073741866,50,50,1073741866,1073741866,1073741866,50,1073741866,50,1073741866,50,1073741866,
0,0,52,52,52,52,52,52,52,52,52,52,52,52,52,52,
0,0,0,0,0,0,0,0,0,0,0,0,0,0,0,0,
0,0,0,0,0,0,0,0,0,0,0,0,0,0,0,0,
0,0,0,0,0,0,0,0,0,0,0,0,0,0,0,0,
0,0,0,0,0,0,0,0,0,0,0,0,0,0,0,0,
0,0,0,0,0,0,0,0,0,0,0,0,0,0,0,0,
0,0,0,0,0,0,0,0,0,0,0,0,0,0,0,0,
0,0,0,0,0,0,0,0,0,0,0,0,0,0,0,0,
0,0,0,0,0,0,0,0,0,0,0,0,0,0,0,0,
0,0,0,0,0,0,0,0,0,0,0,0,0,0,0,0,
0,0,0,0,0,0,0,0,0,0,0,0,0,0,0,0
</chunk>
   <chunk x="-16" y="16" width="16" height="16">
52,0,0,0,0,0,0,0,0,0,3221225500,27,27,27,1073741852,0,
52,0,0,0,0,0,1073741858,0,0,0,0,0,0,0,0,0,
52,0,2147483676,27,27,27,3221225498,0,0,0,0,0,0,0,0,0,
52,52,52,52,2147483696,46,45,47,45,46,47,47,45,47,47,46,
50,1073741866,50,1073741866,1073741866,50,1073741866,1073741866,1073741866,50,50,1073741866,1073741866,1073741866,50,1073741866,
52,0,0,0,0,0,0,0,0,0,0,0,0,0,0,0,
0,0,0,0,0,0,0,0,0,0,0,0,0,0,0,0,
0,0,0,0,0,0,0,0,0,0,0,0,0,0,0,0,
0,0,0,0,0,0,0,0,0,0,0,0,0,0,0,0,
0,0,0,0,0,0,0,0,0,0,0,0,0,0,0,0,
0,0,0,0,0,0,0,0,0,0,0,0,0,0,0,0,
0,0,0,0,0,0,0,0,0,0,0,0,0,0,0,0,
0,0,0,0,0,0,0,0,0,0,0,0,0,0,0,0,
0,0,0,0,0,0,0,0,0,0,0,0,0,0,0,0,
0,0,0,0,0,0,0,0,0,0,0,0,0,0,0,0,
0,0,0,0,0,0,0,0,0,0,0,0,0,0,0,0
</chunk>
   <chunk x="0" y="16" width="16" height="16">
0,0,0,0,0,0,0,0,0,0,0,0,2684354564,0,0,1610612783,
0,0,0,0,0,0,0,0,4,0,0,0,2684354564,0,0,1610612783,
0,0,0,0,0,0,0,0,0,0,0,0,0,0,0,536870960,
47,46,47,46,45,46,47,46,47,46,47,46,45,46,47,48,
1073741866,1073741866,1073741866,1073741866,1073741866,1073741866,1073741866,1073741866,1073741866,1073741866,1073741866,1073741866,1073741866,1073741866,1073741866,1073741866,
0,0,0,0,0,0,0,0,0,0,0,0,0,0,0,0,
0,0,0,0,0,0,0,0,0,0,0,0,0,0,0,0,
0,0,0,0,0,0,0,0,0,0,0,0,0,0,0,0,
0,0,0,0,0,0,0,0,0,0,0,0,0,0,0,0,
0,0,0,0,0,0,0,0,0,0,0,0,0,0,0,0,
0,0,0,0,0,0,0,0,0,0,0,0,0,0,0,0,
0,0,0,0,0,0,0,0,0,0,0,0,0,0,0,0,
0,0,0,0,0,0,0,0,0,0,0,0,0,0,0,0,
0,0,0,0,0,0,0,0,0,0,0,0,0,0,0,0,
0,0,0,0,0,0,0,0,0,0,0,0,0,0,0,0,
0,0,0,0,0,0,0,0,0,0,0,0,0,0,0,0
</chunk>
   <chunk x="16" y="16" width="16" height="16">
2684354602,0,0,0,0,0,0,0,0,0,0,0,0,0,0,0,
2684354602,0,0,0,0,0,0,0,0,0,0,0,0,0,0,0,
2684354602,0,0,0,0,0,0,0,0,0,0,0,0,0,0,0,
2684354602,0,0,0,0,0,0,0,0,0,0,0,0,0,0,0,
2147483697,0,0,0,0,0,0,0,0,0,0,0,0,0,0,0,
0,0,0,0,0,0,0,0,0,0,0,0,0,0,0,0,
0,0,0,0,0,0,0,0,0,0,0,0,0,0,0,0,
0,0,0,0,0,0,0,0,0,0,0,0,0,0,0,0,
0,0,0,0,0,0,0,0,0,0,0,0,0,0,0,0,
0,0,0,0,0,0,0,0,0,0,0,0,0,0,0,0,
0,0,0,0,0,0,0,0,0,0,0,0,0,0,0,0,
0,0,0,0,0,0,0,0,0,0,0,0,0,0,0,0,
0,0,0,0,0,0,0,0,0,0,0,0,0,0,0,0,
0,0,0,0,0,0,0,0,0,0,0,0,0,0,0,0,
0,0,0,0,0,0,0,0,0,0,0,0,0,0,0,0,
0,0,0,0,0,0,0,0,0,0,0,0,0,0,0,0
</chunk>
  </data>
 </layer>
 <objectgroup color="#ff0000" id="9" name="danger">
  <object id="54" x="-192" y="304" width="448" height="16"/>
  <object id="55" x="240" y="-192" width="16" height="512"/>
  <object id="56" x="-288" y="-256" width="416" height="16"/>
  <object id="57" x="-304" y="-256" width="16" height="416"/>
  <object id="59" x="144" y="-192" width="96" height="16"/>
  <object id="60" x="128" y="-208" width="16" height="16"/>
 </objectgroup>
 <objectgroup color="#ffaaff" id="8" name="engrenagem">
  <object id="36" x="-394" y="248">
   <point/>
  </object>
 </objectgroup>
 <objectgroup color="#950002" id="7" name="enemy">
  <properties>
   <property name="direcao" value=""/>
  </properties>
 </objectgroup>
 <objectgroup color="#00ff00" id="3" name="spawn" class="spawn">
  <object id="37" x="-465.333" y="312">
   <point/>
  </object>
 </objectgroup>
 <objectgroup color="#ff5500" id="4" name="next">
  <object id="158" x="208.5" y="-239.25" width="31.75" height="30"/>
 </objectgroup>
 <objectgroup color="#69009e" id="5" name="pecas" tintcolor="#ffff00">
  <object id="61" x="192" y="263.5">
   <point/>
  </object>
  <object id="63" x="-187" y="277.5">
   <point/>
  </object>
  <object id="64" x="-247.5" y="-169.5">
   <point/>
  </object>
  <object id="65" x="15" y="95.5">
   <point/>
  </object>
  <object id="69" x="183.5" y="0">
   <point/>
  </object>
  <object id="70" x="50.5" y="28">
   <point/>
  </object>
  <object id="71" x="-54.5" y="10">
   <point/>
  </object>
  <object id="72" x="-106.5" y="183.5">
   <point/>
  </object>
  <object id="73" x="57" y="210.5">
   <point/>
  </object>
  <object id="126" x="-222.667" y="146.667">
   <point/>
  </object>
  <object id="127" x="-200" y="34">
   <point/>
  </object>
  <object id="150" x="-50.6667" y="-59.3333">
   <point/>
  </object>
  <object id="151" x="42.6667" y="-151.333">
   <point/>
  </object>
  <object id="153" x="184" y="-134.667">
   <point/>
  </object>
  <object id="154" x="-18.6667" y="-201.333">
   <point/>
  </object>
  <object id="155" x="-214" y="-88">
   <point/>
  </object>
  <object id="156" x="-144" y="-138.667">
   <point/>
  </object>
  <object id="157" x="169.333" y="-216.667">
   <point/>
  </object>
 </objectgroup>
 <objectgroup color="#ffff00" id="2" name="wall" class="wall">
  <object id="39" x="-511.667" y="320" width="783.667" height="16"/>
  <object id="40" x="144.333" y="-207.667" width="111.667" height="15.6667"/>
  <object id="43" x="256" y="-272" width="16" height="608"/>
  <object id="44" x="-512" y="160" width="16" height="160"/>
  <object id="46" x="-496" y="160" width="224" height="16"/>
  <object id="47" x="-288" y="160" width="16" height="96"/>
  <object id="49" x="-320" y="-272" width="16" height="432"/>
  <object id="51" x="-304" y="-272" width="576" height="16"/>
  <object id="74" x="-223.25" y="288" width="79.25" height="16"/>
  <object id="75" x="-160.25" y="282" width="15" height="5.75"/>
  <object id="76" x="-96" y="256" width="80" height="16"/>
  <object id="77" x="-240" y="208" width="16" height="32"/>
  <object id="78" x="-144" y="192" width="80" height="16"/>
  <object id="80" x="-144.063" y="207.938" width="15.0625" height="5.9375"/>
  <object id="88" x="-235" y="112.333" width="5.66667" height="63"/>
  <object id="89" x="-192" y="128" width="64" height="16"/>
  <object id="90" x="-192.182" y="144.364" width="14.7273" height="5.45455"/>
  <object id="91" x="-15.8182" y="180.909" width="15.6364" height="5.81818"/>
  <object id="94" x="33.8182" y="197.091" width="45.8182" height="5.81818"/>
  <object id="95" x="32.0625" y="198.125" width="7.8125" height="7.6875"/>
  <object id="96" x="96.25" y="192.75" width="7.25" height="10"/>
  <object id="97" x="103.25" y="196.5" width="56.25" height="6.5"/>
  <object id="99" x="196.818" y="160" width="6.09091" height="47.9091"/>
  <object id="100" x="197" y="240.091" width="6.18182" height="48"/>
  <object id="101" x="128" y="277" width="15.7273" height="5.72727"/>
  <object id="102" x="196.909" y="80.3636" width="6.36364" height="31.4545"/>
  <object id="103" x="80" y="112" width="48" height="16"/>
  <object id="104" x="112.364" y="128" width="14.3636" height="5.63636"/>
  <object id="105" x="-16.1818" y="100.909" width="63.8182" height="5.81818"/>
  <object id="106" x="40" y="97.2727" width="7.45455" height="5.81818"/>
  <object id="107" x="-80" y="80" width="16" height="16"/>
  <object id="108" x="-85.8182" y="79.8182" width="4.90909" height="14.7273"/>
  <object id="109" x="-63.6364" y="80.7273" width="5.45455" height="15.0909"/>
  <object id="110" x="-235.455" y="63.0909" width="6.72727" height="16.5455"/>
  <object id="111" x="-224.364" y="20.7273" width="48.3636" height="6.72727"/>
  <object id="112" x="-224.364" y="23.0909" width="8" height="6.90909"/>
  <object id="113" x="-235.091" y="-63.8182" width="6" height="63.6364"/>
  <object id="114" x="-192" y="-48" width="80" height="16"/>
  <object id="115" x="-80" y="-48" width="64" height="16"/>
  <object id="116" x="64" y="-48" width="32" height="16"/>
  <object id="117" x="144" y="-48" width="80" height="16"/>
  <object id="118" x="207.818" y="-54" width="15.4545" height="5.45455"/>
  <object id="119" x="128" y="16" width="16" height="16"/>
  <object id="120" x="122.182" y="15.8182" width="4.90909" height="14.9091"/>
  <object id="121" x="144.182" y="16" width="5.45455" height="14.7273"/>
  <object id="122" x="-96" y="16" width="112" height="16"/>
  <object id="123" x="0" y="32" width="96" height="16"/>
  <object id="124" x="-175.938" y="69.125" width="31.8125" height="5.75"/>
  <object id="125" x="-152.063" y="64.9375" width="8.125" height="8.5625"/>
  <object id="128" x="192" y="-16" width="16" height="32"/>
  <object id="129" x="193" y="13.5" width="13.5" height="8"/>
  <object id="130" x="-64" y="-160" width="16" height="48"/>
  <object id="131" x="-144" y="-96" width="32" height="16"/>
  <object id="132" x="-240" y="-112" width="48" height="16"/>
  <object id="133" x="-32" y="-112" width="32" height="16"/>
  <object id="134" x="16" y="-80" width="32" height="16"/>
  <object id="135" x="64" y="-112" width="32" height="16"/>
  <object id="136" x="144" y="-112" width="16" height="16"/>
  <object id="137" x="192" y="-144" width="16" height="16"/>
  <object id="138" x="128" y="-160" width="16" height="16"/>
  <object id="139" x="80" y="-176" width="16" height="16"/>
  <object id="140" x="32" y="-144" width="16" height="16"/>
  <object id="141" x="0" y="-192" width="16" height="16"/>
  <object id="142" x="-32" y="-224" width="32" height="16"/>
  <object id="143" x="48" y="-224" width="16" height="16"/>
  <object id="144" x="-90.75" y="-192" width="5.75" height="16"/>
  <object id="145" x="-139" y="-144.125" width="6" height="15.875"/>
  <object id="146" x="-267.25" y="-144" width="6" height="16"/>
  <object id="147" x="-267.25" y="-176.125" width="6.125" height="16"/>
  <object id="148" x="-256.125" y="-219.375" width="16.25" height="6.25"/>
  <object id="149" x="-192" y="-219.25" width="31.875" height="6.125"/>
 </objectgroup>
</map>
